symbols/web/align_horizontal_center/materialsymbolsrounded/align_horizontal_center_wght600grad200_24px.svg

<svg xmlns="http://www.w3.org/2000/svg" height="24" width="24"><path d="M12 23q-.625 0-1.075-.45-.45-.45-.45-1.1v-3.8H7.05q-.85 0-1.45-.6T5 15.6q0-.85.6-1.438.6-.587 1.45-.587h3.425v-3.15H4.05q-.85 0-1.45-.6T2 8.375q0-.85.6-1.438.6-.587 1.45-.587h6.425v-3.8q0-.65.45-1.1Q11.375 1 12 1t1.075.45q.45.45.45 1.1v3.8h6.425q.85 0 1.45.6T22 8.4q0 .85-.6 1.437-.6.588-1.45.588h-6.425v3.15h3.425q.85 0 1.45.6t.6 1.45q0 .85-.6 1.437-.6.588-1.45.588h-3.425v3.8q0 .65-.45 1.1-.45.45-1.075.45Z"/></svg>

<svg xmlns="http://www.w3.org/2000/svg" height="24" width="24"><path d="M12 23Q11.375 23 10.925 22.55Q10.475 22.1 10.475 21.45V17.65H7.05Q6.2 17.65 5.6 17.05Q5 16.45 5 15.6Q5 14.75 5.6 14.162Q6.2 13.575 7.05 13.575H10.475V10.425H4.05Q3.2 10.425 2.6 9.825Q2 9.225 2 8.375Q2 7.525 2.6 6.937Q3.2 6.35 4.05 6.35H10.475V2.55Q10.475 1.9 10.925 1.45Q11.375 1 12 1Q12.625 1 13.075 1.45Q13.525 1.9 13.525 2.55V6.35H19.95Q20.8 6.35 21.4 6.95Q22 7.55 22 8.4Q22 9.25 21.4 9.837Q20.8 10.425 19.95 10.425H13.525V13.575H16.95Q17.8 13.575 18.4 14.175Q19 14.775 19 15.625Q19 16.475 18.4 17.062Q17.8 17.65 16.95 17.65H13.525V21.45Q13.525 22.1 13.075 22.55Q12.625 23 12 23Z"/></svg>
